app/assets/images/general/icons/socials/facebook-modal.svg

<svg width="35" height="35" viewBox="0 0 35 35" fill="none" xmlns="http://www.w3.org/2000/svg">
<path d="M17.5 35C27.165 35 35 27.165 35 17.5C35 7.83502 27.165 0 17.5 0C7.83502 0 0 7.83502 0 17.5C0 27.165 7.83502 35 17.5 35Z" fill="#3B5998"/>
<path d="M21.8993 18.1851H18.7766V29.625H14.0455V18.1851H11.7954V14.1646H14.0455V11.5629C14.0455 9.7024 14.9293 6.78906 18.8187 6.78906L22.3232 6.80372V10.7063H19.7805C19.3634 10.7063 18.7769 10.9147 18.7769 11.8022V14.1683H22.3126L21.8993 18.1851Z" fill="white"/>
</svg>

<svg width="35" height="35" fill="none" xmlns="http://www.w3.org/2000/svg"><path d="M17.5 35C27.165 35 35 27.165 35 17.5S27.165 0 17.5 0 0 7.835 0 17.5 7.835 35 17.5 35z" fill="#3B5998"/><path d="M21.9 18.185h-3.123v11.44h-4.732v-11.44h-2.25v-4.02h2.25v-2.602c0-1.86.884-4.774 4.774-4.774l3.504.015v3.902H19.78c-.417 0-1.003.209-1.003 1.096v2.366h3.536l-.414 4.017z" fill="#fff"/></svg>
